X:7
T:Swadeshi Dhanyavad Dhanyavad Swaraj
M:4/4
L:1/8
Q:1/4=57
K:D
|: D2 FA d2 fd | A2 C'D' A2 FA | B2 DF B2 dB | F2 AC F2 DF :|
| d f a f d A F D | c e a e c A E C | B d f d B F D B, | A c f c A F C A, |
